X:1
T:Turning of the Season (The)
C:Robin Bullock
M:3/4
L:1/4
K:G
%%staves{RH1 RH2 RH3}
V:RH1 clef=treble name="Melody"
V:RH2 clef=treble name="Harmony"
V:RH3 clef=treble name="Maggie"
[V:RH1] |:B,/2D/2|"Em"E3/2 F/2 E/2D/2|"G"D3/2 d/2 c/2B/2
[V:RH2] |:z|G3|B3/2 A/2 G
[V:RH3] |:z|G,3|D3
[V:RH1] |"Am"B A3/2 G/2|"C"G3/2 G/2 E/2D/2|"Bm"B3/2 d/2 e/2B/2|"Am"B A {BA}G
[V:RH2] |E2 c/2d/2|e2 c|d3|e2 d
[V:RH3] |E3|G3|D3|E3
[V:RH1] |"C"E3/2 B/2 G/2A/2|"D"A2 B,/2D/2|"Em"E3/2 F/2 E/2D/2|"G"D3/2 d/2 c/2B/2
[V:RH2] |g3/2 d/2 e/2g/2|(g/2f/2) d2|G3|B3/2 A/2 G
[V:RH3] |G3|F3|G,3|G,3
[V:RH1] |"Am"B A G|"C"e3/2 d/2 B/2A/2|"Bm"B3/2 A/2 G/2E/2
[V:RH2] |e2 a|g2-g/2f/2|d3
[V:RH3] |E3|G3|D3|
[V:RH1] |"Am"A3/2 E/2 D/2B,/2|"D"A,3/2 B,/2 A,/2G,/2|"C"G,2 d/2c/2||
[V:RH2] |e/2d/2 c3/2 d/2|d a3/2 g/2|e2 g/2e/2||
[V:RH3] |E3|F3|G3||
[V:RH1] |"G"c B d|"D/F#"a2-a/2b/2|"C"b g3/2 d/2|"G"A/2B/2 B3/2 d/2
[V:RH2] |e d B|d/2e/2 f3/2 g/2|g e c/2A/2|A G/2A/2 (A/2B/2)
[V:RH3] |D3|F3|G3|D3
[V:RH1] |"F"B/2c/2 A G|"C"D/2E/2 E3/2 G/2|"Am"D/2E/2 E D|"D"A,2 d/2c/2
[V:RH2] |G/2A/2 =F E|G C/2D/2 E|A c3/2 G/2|F d g/2e/2
[V:RH3] |A3|G3|E3|F3
[V:RH1] |"G"c B d|"Bm"a2-a/2f/2|"C"f/2g/2 d2|"Bm"d/2e/2 A2
[V:RH2] |e d g|d'3|c'2 g|f3
[V:RH3] |D3|D3|G3|D3
[V:RH1] |"F"A/2B/2 G D|"Am"A,/2B,/2 B, G,|"Dsus"A,3-|"D"A,2:||
[V:RH2] |=f3|e3/2 f/2 {a}g/2f/2|d3|d2:||
[V:RH3] |A3|E3|D3|D2:||

%%scale 1.15
